X: 797
T: The Besom in Bloom.
C:F. O'Neill.
B:O'Neill's Music of Ireland
N:O'Neill's - 797
Z:Transcribed by Stephen Foy (shf@access.digex.net)
Z:abc 1.6
R:Jig
M:6/8
K:Dmix
e/d/|cBA c2 A|dBA A2 d|cBA c2 d|edc ded|\
cBA c2 d|ede c'2 b|aba gec|edc d2||
||e|fgf fed|efe e2 d|cBA c2 A|dBA A2 e|\
fgf fed|efe efg|aba gec|edc d2|]


